images/foodle/icons/Icon-02-Strategy.svg

<svg width="130" height="125" viewBox="0 0 130 125" fill="none" xmlns="http://www.w3.org/2000/svg">
<path d="M18.132 77.7781C11.8973 76.449 6.78135 73.4177 3.33886 67.9384C-4.55018 55.3924 2.20093 38.9736 16.6594 35.6937C18.4093 35.2921 18.9161 34.6227 19.0213 32.9301C20.1019 15.756 32.753 3.86024 46.3222 0.838495C65.3802 -3.40724 84.5721 8.89966 88.2823 28.0533C88.6265 29.8319 89.2194 30.004 90.7972 29.7554C106.365 27.25 119.131 38.3616 118.949 54.264C118.93 55.5167 119.274 55.947 120.479 56.2243C126.226 57.5344 130.003 62.4973 129.382 67.7662C128.655 73.9723 124.266 77.8546 117.926 77.8738C113.126 77.8833 108.316 77.8738 103.515 77.8642C104.462 73.3603 104.758 68.7894 104.261 64.2377C101.708 41.0391 80.5749 24.8881 57.4146 28.3402C37.8785 31.2567 23.0567 48.2492 22.9228 67.8905C22.9132 68.7225 23.0089 69.5544 22.5403 70.329C21.0486 72.7961 19.5951 75.2919 18.132 77.7781ZM30.6588 35.5885C31.7012 35.3495 33.2981 36.4491 33.4415 33.9533C34.0726 23.5111 41.7226 15.297 52.2892 13.9678C54.9762 13.6331 55.1674 12.6003 55.0814 10.487C55.024 9.14828 54.8041 8.67972 53.3219 8.7371C40.5656 9.26303 28.995 20.6519 28.4117 33.2935C28.3352 34.9191 28.2969 36.3248 30.6588 35.5885ZM13.848 54.8378C14.6895 54.5031 16.1717 55.5836 16.4299 53.6329C17.0036 49.3107 19.5377 46.6523 23.6878 45.5335C24.5102 45.3135 24.8257 44.9406 24.6632 44.1087C24.5197 43.3628 24.338 42.6074 24.3476 41.8519C24.3572 40.561 23.8408 40.3984 22.6551 40.6279C17.1758 41.6798 12.385 46.6714 11.5052 52.2942C11.2183 54.1588 11.4861 55.3541 13.848 54.8378Z" fill="#2F496D"/>
<path d="M98.1603 77.8642C89.9557 77.8355 81.7511 77.8068 73.5465 77.7877C77.3715 72.9299 81.2061 68.0818 85.3084 62.8702C84.0939 62.8702 83.3576 62.8702 82.6213 62.8702C77.142 62.8702 71.6627 62.8702 66.1834 62.8702C63.6111 62.8702 63.6207 62.8702 64.4622 60.317C66.5277 54.0441 68.5932 47.7615 70.6587 41.479C70.8308 40.9626 71.242 40.4462 70.6204 39.7386C70.1136 40.3124 69.645 40.7905 69.2339 41.2973C64.4431 47.2069 59.6427 53.1165 54.8806 59.0452C49.889 65.2704 44.9452 71.5243 39.9823 77.7686C34.7133 77.7686 29.454 77.7685 24.1851 77.7781C26.8052 73.6854 28.6412 69.3727 28.1439 64.3333C28.0387 63.3197 28.4212 62.2295 28.6794 61.1968C32.0358 47.4938 40.3169 38.1704 53.9148 34.3167C67.7899 30.3769 80.1064 33.8959 89.927 44.4242C98.7436 53.8911 101.373 65.2417 98.1603 77.8642Z" fill="#2F496D"/>
<path d="M98.1602 77.8645C101.373 65.242 98.7339 53.8914 89.8982 44.415C80.0776 33.8962 67.7707 30.3773 53.8955 34.3074C40.2977 38.1707 32.0166 47.4941 28.6602 61.1971C28.4115 62.2298 28.029 63.3104 28.1247 64.3336C28.6219 69.373 26.7859 73.6761 24.1658 77.7784C21.9473 81.4791 19.7384 85.1893 17.2808 89.3012C18.6674 89.3012 19.681 89.2916 20.6946 89.3012C23.7259 89.3203 24.3762 89.9801 24.3762 93.1071C24.3857 97.4484 24.3666 101.79 24.3762 106.131C24.3857 111.515 27.6274 114.785 33.0398 114.833C37.9931 114.881 42.9465 114.833 47.8998 114.843C50.3192 114.852 51.0172 115.531 51.0746 117.931C51.1128 119.758 51.0459 121.594 51.0937 123.42C51.1224 124.395 50.9598 124.902 49.755 124.95C46.2551 125.094 46.1882 125.17 46.2169 121.594C46.2264 120.217 45.9013 119.729 44.4574 119.767C40.728 119.863 36.9891 119.805 33.2597 119.796C24.9212 119.786 19.528 114.537 19.3559 106.179C19.2889 102.756 19.2889 99.3227 19.375 95.8897C19.4037 94.6275 19.0786 94.1111 17.7494 94.2259C16.3915 94.3406 15.0049 94.2641 13.6375 94.245C10.8166 94.2067 9.78384 92.5238 11.1513 90.0566C13.4367 85.9352 15.7986 81.8616 18.1319 77.7689C19.6045 75.2826 21.058 72.7868 22.5402 70.3101C23.0087 69.526 22.9227 68.7036 22.9227 67.8717C23.0565 48.2304 37.8784 31.2379 57.4145 28.3213C80.5748 24.8693 101.708 41.0203 104.261 64.2188C104.758 68.7706 104.462 73.3414 103.515 77.8454C101.737 84.5582 98.8009 90.6686 94.0579 95.8132C93.2929 96.6452 93.312 97.5727 93.312 98.5577C93.3216 105.261 93.2068 111.964 93.3694 118.658C93.4363 121.211 91.8394 120.437 90.5485 120.58C89.0376 120.743 88.263 120.504 88.2917 118.591C88.4256 111.285 88.3778 103.97 88.3204 96.6643C88.3109 95.1821 88.7699 94.1207 89.7835 93.0401C93.8667 88.7083 96.8597 83.7454 98.1602 77.8645Z" fill="#2B3037"/>
<path d="M39.9631 77.7682C44.9261 71.5239 49.8794 65.2701 54.8615 59.0449C59.6236 53.1066 64.4239 47.2066 69.2147 41.297C69.6355 40.7806 70.0945 40.3025 70.6013 39.7383C71.2229 40.4459 70.8117 40.9623 70.6395 41.4787C68.574 47.7612 66.5181 54.0342 64.4431 60.3167C63.6016 62.8699 63.592 62.8699 66.1643 62.8699C71.6436 62.8699 77.1229 62.8699 82.6022 62.8699C83.3385 62.8699 84.0748 62.8699 85.2892 62.8699C81.1869 68.0814 77.3524 72.9296 73.5274 77.7873C68.5262 83.9169 63.5538 90.056 58.5239 96.1569C57.1086 97.8781 55.8942 99.8097 53.6183 101.617C56.1333 94.0627 58.4091 87.1108 60.7806 80.1971C61.3926 78.428 61.3544 77.7395 59.1168 77.7778C52.7482 77.9117 46.3604 77.7873 39.9631 77.7682Z" fill="#FFC003"/>
</svg>

<svg xmlns="http://www.w3.org/2000/svg" width="130" height="125" fill="none"><path d="M18.132 77.778c-6.235-1.33-11.35-4.36-14.793-9.84-7.89-12.546-1.14-28.964 13.32-32.244 1.75-.402 2.257-1.07 2.362-2.764 1.08-17.174 13.732-29.07 27.3-32.092 19.058-4.246 38.25 8.06 41.96 27.215.344 1.78.937 1.95 2.515 1.702 15.568-2.505 28.334 8.606 28.152 24.5-.02 1.253.325 1.683 1.53 1.96 5.747 1.3 9.524 6.273 8.903 11.542-.727 6.206-5.116 10.088-11.456 10.108a3624.51 3624.51 0 0 1-14.411-.01c.947-4.504 1.243-9.075.746-13.626-2.553-23.2-23.686-39.35-46.846-35.898-19.536 2.916-34.358 19.9-34.492 39.55-.01.832.086 1.664-.383 2.438l-4.408 7.45zm12.527-42.2c1.042-.24 2.64.86 2.783-1.635.63-10.442 8.28-18.656 18.848-19.985 2.687-.335 2.878-1.367 2.792-3.48-.057-1.34-.277-1.807-1.76-1.75-12.756.526-24.327 11.915-24.9 24.556-.076 1.626-.115 3.03 2.247 2.295zm-16.8 19.25c.84-.335 2.324.746 2.582-1.205.574-4.322 3.108-6.98 7.258-8.1.822-.22 1.138-.593.975-1.425-.143-.746-.325-1.5-.316-2.257.01-1.3-.507-1.453-1.692-1.224-5.48 1.052-10.27 6.044-11.15 11.666-.287 1.865-.02 3.06 2.343 2.544zm84.31 23.036l-24.614-.076L85.308 62.87H66.183c-2.572 0-2.563 0-1.72-2.553L70.66 41.48c.172-.516.583-1.033-.038-1.74l-1.386 1.56L54.88 59.045 39.982 77.77l-15.797.01c2.62-4.093 4.456-8.405 3.96-13.445-.105-1.014.277-2.104.536-3.136 3.356-13.703 11.637-23.026 25.235-26.88 13.875-3.94 26.192-.42 36.012 10.108 8.817 9.467 11.446 20.817 8.233 33.44z" fill="#2f496d"/><path d="M98.16 77.865c3.213-12.623.574-23.973-8.262-33.45-9.82-10.52-22.127-14.038-36.003-10.108-13.598 3.863-21.88 13.187-25.235 26.9-.25 1.033-.63 2.113-.535 3.137.497 5.04-1.34 9.343-3.96 13.445L17.28 89.3h3.414c3.03.02 3.682.68 3.682 3.806v13.024c.01 5.384 3.25 8.654 8.664 8.702l14.86.01c2.42.01 3.117.688 3.175 3.088.038 1.827-.03 3.663.02 5.49.03.975-.134 1.482-1.34 1.53-3.5.144-3.567.22-3.538-3.356.01-1.377-.316-1.865-1.76-1.827-3.73.096-7.468.038-11.198.03-8.34-.01-13.732-5.26-13.904-13.617a230.56 230.56 0 0 1 .019-10.289c.03-1.262-.296-1.78-1.626-1.664-1.358.115-2.745.038-4.112.02-2.82-.038-3.854-1.72-2.486-4.188l6.98-12.288 4.408-7.46c.47-.784.383-1.607.383-2.438.134-19.64 14.956-36.634 34.492-39.55 23.16-3.452 44.294 12.7 46.847 35.898.497 4.552.2 9.123-.746 13.627-1.778 6.713-4.714 12.823-9.457 17.968-.765.832-.746 1.76-.746 2.745l.057 20.1c.067 2.553-1.53 1.78-2.82 1.922-1.51.163-2.285-.076-2.257-1.99.134-7.306.086-14.62.03-21.927-.01-1.482.45-2.544 1.463-3.624 4.083-4.332 7.076-9.295 8.377-15.176z" fill="#2b3037"/><path d="M39.963 77.768l14.898-18.723 14.353-17.748 1.387-1.56c.622.708.2 1.224.038 1.74l-6.196 18.838c-.842 2.553-.85 2.553 1.72 2.553H85.29L73.527 77.787l-15.004 18.37c-1.415 1.72-2.63 3.653-4.906 5.46l7.162-21.42c.612-1.77.574-2.458-1.664-2.42-6.37.134-12.756.01-19.154-.01z" fill="#ffc003"/></svg>
